X:158
T: Trip to Waterford (A)
N: O'Farrell's Pocket Companion v.2 (Sky ed. p.81)
N: "Irish"
M: C
L: 1/8
R: reel
Q: 350
K: D
AB/c/|dAFD B2 B2|dAFD E2E2|dAFD BABg|fedc d2 :|
P:2
zf/g/|afaf bgbg|afaf edBf/g/|afaf bgbg|fedc d2 :|
P:3
AB/c/|dFAF B2B2|dFAF E2E2|dFAF BABg|fedc d3 f/g/|
adfd gdfd|edef dBBf/g/|adfd gdfd|edef d2 :|
P:4
AB/c/|dFdF BABd|AdFd E2E2|dFdF BABc|fedc d2 :|
P:5
zf/g/|adfd g2 bg|adfd edB>f|adfd gbag|fedc d2 :|
